X:1
T:Have You Seen the Star?
T:Have You Seen the Star?
T:W. R. Chambers
T:W. R. Chambers, 1904
T:Public Domain Courtesy of the Cyber Hymnal™
T:Public Domain Courtesy of the Cyber Hymnal™
T:Public Domain Courtesy of the Cyber Hymnal™
C:W. R. Chambers
Z:Public Domain
Z:Courtesy of the Cyber Hymnal™
%%score ( 1 2 ) ( 3 4 )
L:1/8
Q:1/4=100
M:4/4
K:Ab
V:1 treble 
V:2 treble 
V:3 bass 
V:4 bass 
V:1
 [CE]>[DF] | [CA]2 [CA]2 [Ec][Ec][DB][CA] | [DB][FA][EG][DF] [CE]2 [Ae]>[Af] | %3
w: 1.~Have you|seen the Star that shines to|guide the travel- er on, As he|
w: 2.~O the|wise men from a- far did|come to see the sight, And the|
w: 3.~Bro- ther,|don’t fold up your hands and|stand in dark- ness here, When you|
w: 4.~Don’t grow|wea- ry then, my bro- ther,|with the ills of life, Ne- ver|
 [Ac]2 [Ac]2 [EB][EA] [DF]>[CE] | [CA][Ec][=DB][DF] !fermata![_DB]2 [DE]>[DF] | %5
w: jour- neys, home- sick with his|hea- vy load of care? It will|
w: shep- herds sang for joy that|bright and hap- py morn; Yes, the|
w: have a guide that will not|let you go a- stray; Je- sus|
w: get dis- cour- aged as this|earth- ly race you run; Just be|
 [CA]2 [CA]2 [Ec][Ec][DB][CA] | [DB][FA][EG][DF] [CE]2 [Ae]>[Af] | %7
w: guide him safe- ly o- ver|to that hap- py home, Where the|
w: wise men did re- joice that|calm and peace- ful night, When they|
w: is the Star to lead you|to a home so dear; He will|
w: pa- tient for a- while, and|then will end the strife, And the|
 [Ae]2 [CA]>[DB] [Ec]2 [DB]>[CA] | [DB][DE][DF][DG] !fermata![CA]2 ||[M:12/8]"^Refrain" ABc | %10
w: saints of all ag- es are|sweet- ly rest- ing there.||
w: knew that the prom- ised Mes-|si- ah had been born.||
w: guide, safe- ly guide to the|land of end- less day.|O this bright|
w: Lord then will glad- den you|with the words, “Well done.”||
 (z3 [Ae]2) c fec x3 | z2 [EA]3 c dc x4 | z3 [EB]2 [GB] [AB][Ac][A=d] x3 | e6 B3 [ce][df][ce] | %14
w: ||||
w: ||||
w: * Star for- ev- er|* shall shine, Though|* for * a while|* * earth’s storms may|
w: ||||
 [Ac]8 [EA] [FB][FA][DF] | [CE]6- [CE]3 [CE][CA][Ec] | [ce]8 [Ac] [Bd][Ac][GB] | (z2 [EA]3) x5 |] %18
w: ||||
w: ||||
w: * as- sail; Hea- ven’s|sweet * home at last|shall be thine; Ju- dah’s||
w: ||||
V:2
 x2 | x8 | x8 | x8 | x8 | x8 | x8 | x8 | x6 ||[M:12/8] x3 | e6- AAA x3 | A6- EFF F x2 | %12
 B6- EEE x3 | G2 GAAA x6 | x12 | x12 | x12 | A6 EFF F |] %18
V:3
 [A,,A,]>[A,,A,] | [A,,A,]2 [A,,A,]2 A,A,A,A, | [D,F,][D,A,][D,A,][D,A,] [A,,A,]2 [A,C]>[A,D] | %3
w: ~ ~|~ ~ ~ ~ ~ ~|~ ~ ~ ~ ~ ~ ~|
 [A,E]2 [A,E]2 [A,D][A,C] [A,,A,]>[A,,A,] | [A,,A,][A,,A,][B,,A,][B,,A,] [E,G,]2 [E,G,]>[E,G,] | %5
w: ~ ~ ~ ~ ~ ~|~ ~ ~ ~ ~ ~ ~|
 [A,,A,]2 [A,,A,]2 A,A,A,A, | [D,F,][D,A,][D,A,][D,A,] [A,,A,]2 [A,C]>[A,D] | %7
w: ~ ~ ~ ~ ~ ~|~ ~ ~ ~ ~ ~ ~|
 [A,C]2 A,>A, A,2 A,>A, | [E,G,][E,G,][E,A,][E,B,] !fermata![A,,A,]2 ||[M:12/8] z3 | %10
w: ~ ~ ~ ~ ~ ~|~ ~ ~ ~ ~||
 z3 [A,C][A,C][A,C] [A,C]2 z4 | z2 [A,C] [D,D][D,D][D,D] [A,,C]3 z3 | %12
w: O this bright Star|for- ev- er shall shine,|
 z3 [B,,G,][B,,G,][B,,G,] [B,,G,]2 [B,,B,] [B,,B,][B,,B,][B,,B,] | B,6 G,3 z3 | %14
w: Though for a while earth’s storms may as-|sail, earth’s|
 z3 [A,E][A,E][A,E] [A,E]2 [A,C] [D,D][D,D][D,A,] | [A,,A,]2 [A,,A,] [A,,A,][C,A,][E,A,] A,3 z3 | %16
w: storms may as- sail; Hea- ven’s sweeet home|at last shall be thine, at|
 z3 [A,E][A,E][A,E] [A,E]2 [A,E] [E,E][E,E][E,E] | C2 C DDD [A,,C]3 x |] %18
w: last shall be thine, Ju- dah’s bright Star|o’er all shall pre- vail, all|
V:4
 x2 | x4 A,A,A,A, | x8 | x8 | x8 | x4 A,A,A,A, | x8 | x2 A,>A, A,2 A,>A, | x6 ||[M:12/8] x3 | x12 | %11
 x12 | x12 | E,2 E, F,F,F, x6 | x12 | x6 A,3 x3 | x12 | A,,6- x4 |] %18

